!!!COM: Richard Strauss
!!!CNT: Deutscher
!!!TXO: Deutsche 
!!!OTL: Mein Herz ist stumm
!!!OPS: Opus 19
!!!ONM: No. 6
!!!LYR: A. Fr. Graf v. Schack
!!!ENC: Brian Bice
!!!YOR: Lieder, Complete Edition, vol. 1
!!!ODT: 1888/
!!NB: Vocal melody and text only encoded.
**kern	**silbe
*clefG2	*
*k[b-e-a-d-g-c-f-]	*
*M4/4	*
=0	=0
2.r	.
8r	.
{8e-	{Mein
=1	=1
4.e-	Herz
8e-	ist
4.a-	stumm,
8e-	mein
=2	=2
4.e-	Herz
8e-	ist
8.a-}	kalt,}
{16a-	{er-
[4ccn	-starrt
=3	=3
12ccn]	|
12dd-	in
12dd-	des
2e-	Win-
4e-	-ters
=4	=4
4e-	Ei-
4e-}	-se;}
4r	.
{4e-	{bis-
=5	=5
8e-	-wei-
8e-	-len
12e-	in
12e-	sei-
12e-	-ner
8a-	Tie-
8a-	-fe
4a-	nur
=6	=6
4.cc-}	wallt}
{8dd-	{und
4ee-	zit-
4ee-	-tert
=7	=7
8r	.
8ee-	und
(12gg-	regt
12ffn)	|
12ee-	sich's
4.dd-	lei-
8a-	-se,
=8	=8
4b-	lei-
4b-}	-se.}
4r	.
8r	.
{8g-	{Dann
=9	=9
8g-	ist's,
8g-	als
8g-	ob
8g-	ein
(4ee-	mil-
12dd-	|
12ee-)	|
12ff-	-des
=10	=10
2.ee-}	Tau'n}
{4ee-	{die
=11	=11
4ee-	Dek-
8ee-	-ke
8ee-	des
([4gg-	Fro-
12gg-]	|
12ff-)	|
12ee-	-stes
=12	=12
4ee-	bre-
4ff-}	-che;}
4r	.
{4ee-	{durch
=13	=13
[4dd-	gru2-
12dd-]	|
12b-	-nen-
12g-	-de
4cc-	Wa2l-
4cc-	-der,
=14	=14
[4gg-	blu2-
12gg-]	|
12dd-	-hen-
12ddn	-de
4ee-}	Au'n}
{12ee-	{mur-
12ff-	-meln
12gg-	von
=15	=15
2.aa-	Neu-
8ddn	-em
8ddn	die
=16	=16
2ee-	Ba2-
4b-}	-che.}
8r	.
{8e-	{Und
=17	=17
[2e-	Ho2r-
8.e-]	|
16a-	-ner-
4b-	klang,
=18	=18
8r	.
8e-	von
8.a-	Blatt
16ccn	zu
4.ee-}	Blatt}
{8ee-	{vom
=19	=19
(2aa-	Fru2h-
8gg#)	|
8ff#	-lings-
12dd#	-win-
12cc#	-de
12bn	ge-
=20	=20
4een	-tra-
4bn}	-gen,}
{12en	{dringt
12en	aus
12f#	den
12g#	Schluch-
12an	-ten
12bn	ans
=21	=21
2.cc#	Ohr
4g#	mir
=22	=22
2.an}	matt,}
{8cc#	{wie
8cc#	ein
=23	=23
4.ddn	Ruf
8ddn	aus
[4ff#	se-
12ff#]	|
12een	-li-
12ddn	-gen
=24	=24
2ggn	Ta-
8gn}	-gen.}
8r	.
{8.gn	{Doch
16gn	das
=25	=25
[4ffn	al-
12ffn]	|
12een	-tern-
12een	-de
4.an	Herz
8an	wird
=26	=26
4.ffn	jung
8een	nicht
4.dd#}	mehr,}
{8dd#	{das
=27	=27
[2een	E-
8een]	|
8ddn	-cho
12ddn	ster-
12een	-ben-
12ff#	-den
=28	=28
*M5/4	*
4.een}	Schalls}
{8een	{to2nt
(8.een	fer-
16ddn)	|
4an	-ner,
12r	.
12ff#	im-
12een	-mer
=29	=29
*M3/4	*
8.een	fer-
16ddn	-ner
2an}	her,}
=30	=30
4r	.
8r	.
{8an	{und
12an	wie-
12b-	-der
12ccn	er-
=31	=31
2.fn	-starrt
=32	=32
4r	.
2b-	liegt
=33	=33
*M4/4	*
1b-	al-
=34	=34
2e-}	-les.}
2r	.
=35	=35
2r	.
8r	.
{8a-	{Mein
8a-	Herz
8a-	ist
=36	=36
2a-	stumm,
8r	.
8a-	mein
8a-	Herz
8a-	ist
=37	=37
1cc-}	kalt.}
*-	*-
